public/vscode-icons/qsharp.svg

<svg xmlns="http://www.w3.org/2000/svg" viewBox="0 0 32 32"><path d="M19.451 6.218h2.638v2.638h2.637V6.218h2.637v2.638H30V11.5h-2.636v2.636H30v2.634h-2.636v2.637h-2.637v-2.638h-2.636v2.637h-2.638v-2.638h-2.638v-2.641h2.638V11.5h-2.638V8.853h2.639Zm2.638 7.914h2.637V11.5h-2.637ZM14.018 21.524a11.44 11.44 0 0 0 1.572-6.192 10.88 10.88 0 0 0-1.858-6.6 5.89 5.89 0 0 0-4.924-2.579 5.92 5.92 0 0 0-4.94 2.581A10.84 10.84 0 0 0 2 15.333a10.85 10.85 0 0 0 1.868 6.592 5.92 5.92 0 0 0 4.941 2.588 5.74 5.74 0 0 0 3.26-.987l2.306 2.321 1.577-2.4Zm-5.17-1.218 1.117 1.121a3.2 3.2 0 0 1-1.174.217 3.34 3.34 0 0 1-2.837-1.593 8.13 8.13 0 0 1-1.18-4.719 8.1 8.1 0 0 1 1.184-4.724 3.37 3.37 0 0 1 2.87-1.588 3.31 3.31 0 0 1 2.819 1.585 8.18 8.18 0 0 1 1.172 4.726 9.1 9.1 0 0 1-.833 4.15l-1.56-1.571Z" style="fill:#33c"/></svg>

<svg xmlns="http://www.w3.org/2000/svg" viewBox="0 0 32 32"><title>file_type_qsharp</title><path d="M19.451,6.218h2.638V8.856h2.637V6.218h2.637V8.856H30V11.5H27.364v2.636H30V16.77H27.364v2.637H24.727V16.769H22.091l0,2.637H19.453V16.768H16.815V14.127h2.638V11.5H16.815V8.853h2.639Zm2.638,7.914h2.637V11.5H22.089Z" style="fill:#33c"/><path d="M14.018,21.524a11.436,11.436,0,0,0,1.572-6.192,10.877,10.877,0,0,0-1.858-6.6A5.889,5.889,0,0,0,8.808,6.153a5.921,5.921,0,0,0-4.94,2.581A10.842,10.842,0,0,0,2,15.333a10.853,10.853,0,0,0,1.868,6.592,5.918,5.918,0,0,0,4.941,2.588,5.743,5.743,0,0,0,3.26-.987l2.306,2.321,1.577-2.4Zm-5.17-1.218,1.117,1.121a3.229,3.229,0,0,1-1.174.217,3.335,3.335,0,0,1-2.837-1.593,8.125,8.125,0,0,1-1.18-4.719,8.1,8.1,0,0,1,1.184-4.724,3.372,3.372,0,0,1,2.87-1.588,3.31,3.31,0,0,1,2.819,1.585,8.178,8.178,0,0,1,1.172,4.726,9.113,9.113,0,0,1-.833,4.15l-1.56-1.571Z" style="fill:#33c"/></svg>
